X:18670
T:When the Cock Crows it is Day
S:Seamus Ennis
R:jig
E:7
M:6/8
I:speed 350
K:G
D|{A}GAB {c}BAG|d3 {d}d2D|{A}GAB {c}BAG|{c}A3 {B}A2D|{A}GAB {c}BAG|{c}Bcd (4ef.ge|dBG {c}AFD|{A}G3 {c}G2:|
d|g.dd g.dd |{B}c3 {d}c2d|g.dd gdB|{c}A3{B}A2d|g.dd g.dd |Bcd (4ef.ge|dBG {c}AFD| {A}G3 {c}G2:|


